X:13
T: An cailín rua, S. 57
N: I0512
O: Irland
S: O BOYLE, Sean: 25 Irish Folksongs, Dublin 1976]
R: Untreue, Liebe, Dummheit]
M: 2/4
L: 1/8
K: D
D | D2DE | G2GG | A2EE | E2D2 | =c2
cc | B2AG | A2B=c | d4
ee2e | d2BA | G2EF
GAB=c | d2AA | B2GG | E2D2 | D3

